X: 854
T: Sailor's Hornpipe
B: jims roots
M:4/4
L:1/8
Q: 1/4=100
K:Gmaj
V:1 
gf |: "G" g2G2G2dc | Bdgf gbag | "A" a2A2A2ag |
"D"fed^cd2ef | "G" gfed edcB | "C" cBAG "A"GFED |
"D" EGFA GBAc |1 "G" B2G2G2 gf :|2 "G" B2G2G2 dc||
|: "G" Bdgd Bdgd | "C" e2c2c2ed | "A" ^ceae ^ceae |
"D" f2d2d2  ef | "G" gfed edcB | "C" cBAG "A"AGFE |
"D" DGFA GBAc |1 "G" BAGF G2 dc:| [2 "G" BAGF G4 ||
% abcbook-tune_id 6298c2873319089e2879c155


% abcbook-boost 0
% abcbook-tablature 
% abcbook-transpose 
% abcbook-lastupdated 1654178439969
% abcbook-soundfonts 
% abcbook-repeats 1


